X: 69
T: No_160_Switchgrass_Dance_Song_(j).krn
N: Derived from No_160_Switchgrass_Dance_Song_(j).krn
%%abc-version 2.0
%%abcx-abcm2ps-target-version 5.9.1 (29 Sep 2008)
%%abc-creator hum2abc beta
%%abcx-conversion-date 2019/03/15 08:38:45
%%humdrum-veritas 928421749
%%humdrum-veritas-data 2617891009
%%linebreak <none>
%%barnumbers 0
L: 1/8
M: 2/4
K: G clef=bass
[K:clef=bass][M:2/4]D2D2 | 
DA,A,2 | 
A,2A,2 | 
G,D,D,2 | 
D,2D,2 | 
D,4 | 
D,4 | 
G,2G,2 | 
G,2A,2 | 
G,D,D,2 | 
D,2D,2 | 
D,4 | 
D,4 | 
DD D/A,/A, | 
A,A, G,/D,/D, ||  
[M:3/4]D,D,D,2D,2 ||  
[M:2/4]G,G, G,A, | 
(B,3//A,//)A, G,/D,/D, ||  
[M:3/4]D,D, D,/ z/ D,D,2 |]  



